X: 1374
T: Muhayyer Aranağme (Curcuna)
C: ?
O: Turkey
F: http://compmusic.upf.edu/node/140
N: muhayyer--aranagme--curcuna--1--
N: makam= muhayyer
N: form= aranagme
N: usul= curcuna = 10/8
M: 10/8
L: 1/16
K: C _2/4B ^3/4f  
Q: 1/4=180
%%MIDI tuningsystem comma53
f2g2 a2b2 c'2b2 a2g2 ^2/4f2e2  | d2e2 ^2/4f2a2 g2=f2 e2d2 c2B2  | \
w:  ARANAĞME  |   | 
=f2e2 d2f2 e2d2 c2B2 A2G2  | 
w:   | 
A2B2 c2d2 e2f2 g2a4z2  | f2g2 a2b2 c'2b2 a2g2 ^2/4f2e2  | \
w:   |  ARANAĞME  | 
d2e2 ^2/4f2a2 g2=f2 e2d2 c2B2  | 
w:   | 
=f2e2 d2f2 e2d2 c2B2 A2G2  | A4 =f2e2 d2c2 B2A4z2  | |


